X:2062
T:Souree 
C:Mrs Lawson, Jurby East
O:Isle of Man
S:Traditional 
Z:Clague collection
B:Kiaull Vannin #62
M:6/8 
L:1/8
Q:130 
K:D 
A2A|A2B c2c|BAB c3|c2F A2F|E2E E3|c2d e2e|f2c c2c|
cAB c2c|c2d e3|f2e d2c|BAB c2B|B2F A2F|E2E E2z||

